packages/calcite-ui-icons/icons/link-chart-centrality-16.svg

<?xml version="1.0" encoding="UTF-8"?><svg id="icons" xmlns="http://www.w3.org/2000/svg" viewBox="0 0 16 16"><defs><style>.cls-1{fill:none;}</style></defs><path d="M8.94775,4l.25952-.13074c-.12866-.26398-.19728-.55646-.19728-.86926,0-1.10254.88746-2,1.99-2s2,.89746,2,2c0,.36584-.10596.70459-.27832,1h-3.77393ZM4.5,5c-.19165,0-.3764.02618-.55573.06714l-.69409-1.51892c.45349-.367.74982-.92096.74982-1.54822,0-1.10254-.89746-2-2-2S.01.89746.01,2s.88746,2,1.99,2c.11707,0,.23029-.0152.34192-.03461l.6936,1.51776c-.62457.45483-1.02552,1.18646-1.02552,2.01685,0,.97205.55274,1.8067,1.36457,2.22009l-.35071,1.28235c-.00818-.00012-.01569-.00244-.02386-.00244-1.10254,0-1.99.89746-1.99,2s.88746,2,1.99,2,2-.89746,2-2c0-.74188-.41107-1.38342-1.01282-1.72864l.35199-1.2876c.0542.00354.10577.01624.16083.01624.56506,0,1.08093-.19537,1.5-.51245v-1.48755c0,.55225-.44769,1-1,1h-1c-.55231,0-1-.44775-1-1v-1c0-.55231.44769-1,1-1h1c.55231,0,1,.44769,1,1v-.5c0-.42389.11584-.81726.30267-1.16736l-.32324.16284c-.41534-.30743-.92395-.49548-1.47943-.49548ZM9,12h1v-1h-1v1ZM9,14h1v-1h-1v1ZM11,12h1v-1h-1v1ZM13,14h1v-3h-1v3ZM11,14h1v-1h-1v1ZM16,6.5v8c0,.82715-.67285,1.5-1.5,1.5h-6c-.82715,0-1.5-.67285-1.5-1.5V6.5c0-.82715.67285-1.5,1.5-1.5h6c.82715,0,1.5.67285,1.5,1.5ZM15,6.5c0-.27539-.22461-.5-.5-.5h-6c-.27539,0-.5.22461-.5.5v8c0,.27539.22461.5.5.5h6c.27539,0,.5-.22461.5-.5V6.5ZM9,7h5v3h-5v-3ZM10,9h3v-1h-3v1Z"/><path class="cls-1" d="M16,16H0V0h16v16Z"/></svg>

<svg xmlns="http://www.w3.org/2000/svg" viewBox="0 0 16 16"><path d="M8.948 4l.26-.13A1.969 1.969 0 0 1 9.01 3c0-1.103.887-2 1.99-2s2 .897 2 2c0 .366-.106.705-.278 1H8.948zM4.5 5c-.192 0-.376.026-.556.067L3.25 3.548C3.704 3.181 4 2.628 4 2A1.994 1.994 0 1 0 .01 2C.01 3.103.897 4 2 4c.117 0 .23-.015.342-.035l.694 1.518A2.483 2.483 0 0 0 2.01 7.5c0 .972.553 1.807 1.365 2.22l-.351 1.282L3 11c-1.103 0-1.99.897-1.99 2s.887 2 1.99 2 2-.897 2-2c0-.742-.411-1.383-1.013-1.729l.352-1.287c.054.003.106.016.161.016.565 0 1.08-.195 1.5-.512V8a1 1 0 0 1-1 1H4a1 1 0 0 1-1-1V7a1 1 0 0 1 1-1h1a1 1 0 0 1 1 1v-.5c0-.424.116-.817.303-1.167l-.324.162A2.477 2.477 0 0 0 4.5 5zM9 12h1v-1H9v1zm0 2h1v-1H9v1zm2-2h1v-1h-1v1zm2 2h1v-3h-1v3zm-2 0h1v-1h-1v1zm5-7.5v8c0 .827-.673 1.5-1.5 1.5h-6c-.827 0-1.5-.673-1.5-1.5v-8C7 5.673 7.673 5 8.5 5h6c.827 0 1.5.673 1.5 1.5zm-1 0c0-.275-.225-.5-.5-.5h-6c-.275 0-.5.225-.5.5v8c0 .275.225.5.5.5h6c.275 0 .5-.225.5-.5v-8zM9 7h5v3H9V7zm1 2h3V8h-3v1z"/><path d="M16 16H0V0h16v16z" fill="none"/></svg>
